docs/icons/jd.svg

<svg xmlns="http://www.w3.org/2000/svg" xmlns:xlink="http://www.w3.org/1999/xlink" width="16" height="16" viewBox="0 0 16 16" fill="none"><defs><rect id="path_0" x="0" y="0" width="16" height="16" /></defs><g opacity="1" transform="translate(0 0)  rotate(0 8 8)"><mask id="bg-mask-0" fill="white"><use xlink:href="#path_0"></use></mask><g mask="url(#bg-mask-0)" ><path id="矩形 1" fill-rule="evenodd"  transform="translate(0 0)  rotate(0 8 8)" opacity="1" d="M0,16L16,16L16,0L0,0L0,16Z " /><g opacity="1" transform="translate(1.8859296874998108 1.477984374999778)  rotate(0 6.114070312499962 6.5220156249999945)"><path id="路径 1" fill-rule="evenodd" style="fill:#EC1B23" transform="translate(5.679859374999978 0)  rotate(0 0.567984375 0.567984375)" opacity="1" d="M0,0C0,0.38 0,0.76 0,1.14L1.14,1.14C1.14,0.95 1.14,0.77 1.14,0.59C0.95,0.59 0.77,0.59 0.59,0.59C0.59,0.44 0.59,0.15 0.59,0C0.44,0 0.15,0 0,0Z " /><path id="分组 1" fill-rule="evenodd" style="fill:#FFF200" transform="translate(0 1.1359687499998472)  rotate(0 6.114070312499999 5.112265624999998)" opacity="1" d="M8.226 2.26773L8.536 2.26773L8.536 1.99773L8.226 1.99773L8.226 2.26773Z M4.54389 3.40912C4.69389 3.40912 4.98389 3.40912 5.13389 3.40912C5.13389 3.22913 5.13389 3.03912 5.13389 2.85912C4.98389 2.85912 4.69389 2.85912 4.54389 2.85912C4.54389 3.03912 4.54389 3.22913 4.54389 3.40912Z M5.67984 5.13547C6.05984 5.13547 6.43984 5.13547 6.81984 5.13547C6.81984 4.75547 6.81984 4.37547 6.81984 3.99547C6.43984 3.99547 6.05984 3.99547 5.67984 3.99547C5.67984 4.37547 5.67984 4.75547 5.67984 5.13547Z M1.13598 6.26984L1.40598 6.26984C1.40598 6.15984 1.40598 6.05984 1.40598 5.94984C1.51598 5.94984 1.61598 5.94984 1.72598 5.94984C1.72598 5.88984 1.72598 5.74984 1.72598 5.67984L1.13598 5.67984L1.13598 6.26984Z M4.54 0L7.95 0C7.95 0.15 7.95 0.44 7.95 0.59C8.33 0.59 8.71 0.59 9.09 0.59C9.09 0.77 9.09 0.95 9.09 1.14C9.24 1.14 9.53 1.14 9.67 1.14C9.67 1.28 9.68 1.58 9.68 1.72C9.86 1.72 10.04 1.72 10.22 1.72L10.22 2.86C10.22 3.24 10.22 3.62 10.22 4C10.42 4 10.62 4 10.81 4C10.99 4 11.18 4 11.36 4C11.36 4.18 11.36 4.36 11.36 4.54L11.95 4.54L11.95 5.13C12.04 5.14 12.14 5.15 12.23 5.16C12.22 5.91 12.22 6.66 12.22 7.4C11.93 7.4 11.65 7.4 11.36 7.4C11.18 7.4 10.99 7.4 10.81 7.4C10.81 7.26 10.81 6.96 10.81 6.82L10.22 6.82C10.22 7.57 10.23 8.32 10.22 9.07C10.04 9.08 9.86 9.09 9.68 9.09C9.67 9.28 9.67 9.47 9.67 9.66C9.47 9.67 9.28 9.67 9.09 9.68C9.09 9.86 9.08 10.03 9.08 10.21C8.9 10.22 8.72 10.22 8.54 10.22C8.34 10.22 8.15 10.22 7.95 10.22C6.82 10.22 5.68 10.22 4.54 10.22C4.36 10.22 4.18 10.22 4 10.22C3.8 10.22 3.61 10.22 3.42 10.22C3.42 10.04 3.41 9.86 3.4 9.68C3.23 9.67 3.05 9.67 2.87 9.67C2.87 9.47 2.86 9.28 2.86 9.09C2.67 9.09 2.47 9.08 2.28 9.08C2.27 8.32 2.27 7.57 2.27 6.82C2.09 6.82 1.91 6.82 1.72 6.82C1.72 6.96 1.72 7.26 1.72 7.4C1.53 7.4 1.33 7.4 1.14 7.4C0.76 7.4 0.38 7.4 0 7.4L0 5.13C0.2 5.13 0.39 5.13 0.59 5.13C0.59 4.98 0.59 4.69 0.59 4.54C0.77 4.54 0.95 4.54 1.14 4.54C1.14 4.36 1.14 4.18 1.14 4L1.72 4C1.91 4 2.09 4 2.27 4C2.27 3.62 2.27 3.24 2.27 2.86C2.27 2.48 2.27 2.1 2.27 1.72C2.42 1.72 2.71 1.72 2.86 1.72C2.86 1.58 2.86 1.28 2.86 1.14C3.04 1.14 3.23 1.14 3.41 1.14C3.41 0.95 3.41 0.77 3.41 0.59C3.79 0.59 4.17 0.59 4.54 0.59L4.54 0 M7.40338 1.13597C7.40338 1.28597 7.40338 1.57597 7.40338 1.72597C7.47338 1.72597 7.61338 1.72597 7.67338 1.72597C7.67338 1.61597 7.67338 1.51597 7.67338 1.40597C7.74338 1.40597 7.88338 1.40597 7.95338 1.40597C7.95338 1.34597 7.95338 1.20597 7.95338 1.13597C7.77338 1.13597 7.58337 1.13597 7.40338 1.13597 M6.26742 2.85911C6.26742 3.12911 6.26742 3.40911 6.26742 3.67911L6.53742 3.67911C6.53742 3.60911 6.53742 3.47911 6.53742 3.40911C6.72742 3.40911 6.90742 3.40911 7.08742 3.40911C7.08742 3.33911 7.08742 3.19911 7.08742 3.12911C7.01742 3.12911 6.88742 3.12911 6.81742 3.12911L6.81742 2.85911C6.63742 2.85911 6.44742 2.85911 6.26742 2.85911 M7.40298 2.85912C7.40298 3.03912 7.40298 3.22913 7.40298 3.40912C7.58298 3.40912 7.77298 3.40912 7.95298 3.40912C7.95298 3.22913 7.95298 3.03912 7.95298 2.85912C7.77298 2.85912 7.58298 2.85912 7.40298 2.85912 " /><g opacity="1" transform="translate(1.1359843750001346 2.2719218749998618)  rotate(0 3.408093750000001 2.5657343749999995)"><path id="路径 10" fill-rule="evenodd" style="fill:#FFF20A" transform="translate(6.267390625000001 0)  rotate(0 0.27439843750000037 0.2937890624999999)" opacity="1" d="M0,0C0,0.15 0,0.44 0,0.59C0.07,0.59 0.21,0.59 0.27,0.59C0.27,0.48 0.27,0.38 0.27,0.27C0.34,0.27 0.48,0.27 0.55,0.27C0.55,0.21 0.55,0.07 0.55,0C0.37,0 0.18,0 0,0Z " /><path id="路径 11" fill-rule="evenodd" style="fill:#FFF20A" transform="translate(0 4.5438906249999995)  rotate(0 0.29378906250000014 0.2937890624999997)" opacity="1" d="M0,0.59L0.27,0.59C0.27,0.48 0.27,0.38 0.27,0.27C0.38,0.27 0.48,0.27 0.59,0.27C0.59,0.21 0.59,0.07 0.59,0L0,0L0,0.59Z " /></g><path id="路径 12" fill-rule="evenodd" style="fill:#FEF20B" transform="translate(8.226000000000113 3.133703125000011)  rotate(0 0.1566875000000003 0.13710156250000005)" opacity="1" d="M0,0.27L0.31,0.27L0.31,0L0,0L0,0.27Z " /><g opacity="1" transform="translate(1.1359999999999673 3.995295138889105)  rotate(0 4.837656249999999 3.975985243055556)"><path id="路径 13" fill-rule="evenodd" style="fill:#FFC90D" transform="translate(0.5875312499999992 0.00017361111111080518)  rotate(0 0.27420312499999966 0.567984375)" opacity="1" d="M0,0L0,1.14C0.18,1.14 0.37,1.14 0.55,1.14C0.55,0.76 0.55,0.38 0.55,0L0,0Z " /><path id="路径 14" fill-rule="evenodd" style="fill:#FFC90D" transform="translate(9.08756076388889 0)  rotate(0 0.29387586805555443 0.5681258680555563)" opacity="1" d="M0,1.14C0.2,1.14 0.39,1.14 0.59,1.14L0.59,0C0.39,0 0.2,0 0,0C0,0.38 0,0.76 0,1.14Z " /><path id="路径 15" fill-rule="evenodd" style="fill:#FFC90D" transform="translate(0 3.9563124999999997)  rotate(0 1.4297578125 1.9978289930555557)" opacity="1" d="M1.72,2.28C1.53,2.27 1.34,2.27 1.15,2.26C1.13,1.51 1.14,0.75 1.14,0C0.95,0 0.77,0 0.59,0C0.59,0.15 0.59,0.44 0.59,0.59C0.39,0.59 0.2,0.59 0,0.59C0,0.77 0,0.95 0,1.14C0.15,1.14 0.44,1.14 0.59,1.14C0.59,1.51 0.59,1.89 0.59,2.27C0.77,2.27 0.95,2.27 1.14,2.27C1.14,2.42 1.14,2.71 1.14,2.86C1.28,2.86 1.58,2.86 1.72,2.86C1.72,3.04 1.72,3.22 1.72,3.41C1.91,3.41 2.09,3.41 2.27,3.41C2.27,3.56 2.27,3.85 2.27,4C2.47,4 2.66,3.99 2.86,4C2.86,3.8 2.86,3.6 2.86,3.41C2.67,3.4 2.48,3.4 2.29,3.4C2.28,3.22 2.27,3.04 2.27,2.86C2.09,2.86 1.91,2.86 1.74,2.85C1.73,2.66 1.73,2.47 1.72,2.28Z " /></g><g opacity="1" transform="translate(4.543890625000131 3.9950781249999636)  rotate(0 1.7041406250000009 0.27459374999999975)"><path id="路径 16" fill-rule="evenodd" style="fill:#333333" transform="translate(0 0)  rotate(0 0.29378906250000014 0.27459374999999975)" opacity="1" d="M0,0.55C0.15,0.55 0.44,0.55 0.59,0.55C0.59,0.37 0.59,0.18 0.59,0C0.44,0 0.15,0 0,0C0,0.18 0,0.37 0,0.55Z " /><path id="路径 17" fill-rule="evenodd" style="fill:#333333" transform="translate(2.8591093750000027 0)  rotate(0 0.2745859374999995 0.27459374999999975)" opacity="1" d="M0.55 0.55L0 0.55L0 0L0.55 0L0.55 0.55Z" /></g><path id="路径 18" fill-rule="evenodd" style="fill:#FFF10B" transform="translate(6.2674218749998545 3.9950937499997963)  rotate(0 0.4113046875000004 0.4115)" opacity="1" d="M0.27,0.82C0.27,0.75 0.27,0.62 0.27,0.55C0.46,0.55 0.64,0.55 0.82,0.55C0.82,0.48 0.82,0.34 0.82,0.27C0.75,0.27 0.62,0.27 0.55,0.27L0.55,0C0.37,0 0.18,0 0,0C0,0.27 0,0.55 0,0.82L0.27,0.82Z " /><path id="路径 31" fill-rule="evenodd" style="fill:#FF7F26" transform="translate(5.6798437500001455 5.131437500000175)  rotate(0 0.567984375 0.567984375)" opacity="1" d="M0,1.14C0.38,1.14 0.76,1.14 1.14,1.14C1.14,0.76 1.14,0.38 1.14,0C0.76,0 0.38,0 0,0C0,0.38 0,0.76 0,1.14Z " /><path id="路径 32" fill-rule="evenodd" style="fill:#FEC90D" transform="translate(8.539312500000051 7.951765625000007)  rotate(0 1.4101718749999987 1.997749999999999)" opacity="1" d="M2.82,0.59C2.64,0.59 2.45,0.59 2.27,0.59C2.27,0.44 2.27,0.15 2.27,0L1.68,0C1.68,0.75 1.69,1.5 1.68,2.26C1.5,2.26 1.32,2.27 1.14,2.28C1.14,2.46 1.13,2.66 1.13,2.85C0.94,2.85 0.74,2.86 0.55,2.86C0.55,3.04 0.54,3.22 0.54,3.4C0.36,3.4 0.18,3.4 0,3.41C0,3.6 0,3.8 0,4C0.18,4 0.37,4 0.55,4C0.55,3.85 0.55,3.56 0.55,3.41C0.7,3.41 0.99,3.41 1.14,3.41C1.14,3.22 1.14,3.04 1.14,2.86C1.32,2.86 1.5,2.86 1.68,2.86C1.68,2.71 1.68,2.42 1.68,2.27C1.83,2.27 2.12,2.27 2.27,2.27C2.27,1.89 2.27,1.51 2.27,1.14C2.45,1.14 2.64,1.14 2.82,1.14C2.82,0.95 2.82,0.77 2.82,0.59Z " /><g opacity="1" transform="translate(3.407953124999949 11.358484374999989)  rotate(0 2.8401093750000004 0.8427734374999991)"><path id="路径 33" fill-rule="evenodd" style="fill:#323232" transform="translate(0 0.00039062499999964473)  rotate(0 0.8617656249999999 0.8425781249999993)" opacity="1" d="M0.59 1.14L0 1.14L0 1.69L1.72 1.69L1.72 1.14L1.14 1.14L1.14 0L0.59 0L0.59 1.14Z" /><path id="路径 34" fill-rule="evenodd" style="fill:#323232" transform="translate(3.9950625000000004 0)  rotate(0 0.8425781250000002 0.8427656249999993)" opacity="1" d="M0.55,1.14C0.37,1.14 0.18,1.14 0,1.14C0,1.32 0,1.5 0,1.69L1.69,1.69C1.68,1.5 1.68,1.32 1.68,1.14C1.5,1.14 1.32,1.14 1.14,1.14C1.14,0.95 1.14,0.77 1.14,0.59C1.14,0.39 1.14,0.2 1.14,0C0.94,0 0.74,0 0.55,0C0.55,0.2 0.55,0.39 0.55,0.59C0.55,0.77 0.55,0.95 0.55,1.14Z " /></g><path id="路径 35" fill-rule="evenodd" style="fill:#FFC80D" transform="translate(4.5434843749999345 11.359551015204488)  rotate(0 1.7041484375000002 0.2938416798978043)" opacity="1" d="M0,0.59L3.41,0.59C3.41,0.39 3.41,0.2 3.41,0C2.27,0 1.14,0 0,0C0,0.2 0,0.39 0,0.59Z " /></g></g></g></svg>

<svg xmlns="http://www.w3.org/2000/svg" xmlns:xlink="http://www.w3.org/1999/xlink" width="16" height="16" fill="none" xmlns:v="https://vecta.io/nano"><style><![CDATA[.B{fill-rule:evenodd}]]></style><defs><path id="A" d="M0 0h16v16H0z"/></defs><g transform="matrix(1 0 0 1 0 0)"><mask id="B" fill="#fff"><use xlink:href="#A"/></mask><g mask="url(#B)" class="B"><g transform="matrix(1 0 0 1 1.88593 1.477984)"><path transform="matrix(1 0 0 1 5.679859 0)" d="M0 0v1.14h1.14V.59H.59V0H0z" fill="#ec1b23"/><path transform="matrix(1 0 0 1 0 1.135969)" d="M8.226 2.268h.31v-.27h-.31v.27zM4.544 3.409h.59v-.55h-.59v.55zM5.68 5.135h1.14v-1.14H5.68v1.14zM1.136 6.27h.27v-.32h.32v-.27h-.59v.59zM4.54 0h3.41v.59h1.14v.55h.58l.01.58h.54v1.14V4h.59.55v.54h.59v.59l.28.03-.01 2.24h-.86-.55v-.58h-.59v2.25l-.54.02-.01.57-.58.02-.01.53-.54.01h-.59-3.41H4h-.58l-.02-.54-.53-.01-.01-.58c-.19 0-.39-.01-.58-.01l-.01-2.26h-.55v.58h-.58H0V5.13h.59v-.59h.55V4h.58.55V2.86 1.72h.59v-.58h.55V.59h1.13V0m2.863 1.136v.59h.27v-.32h.28v-.27h-.55M6.267 2.859v.82h.27v-.27h.55v-.28h-.27v-.27h-.55m1.136 0v.55h.55v-.55h-.55" fill="#fff200"/><g transform="matrix(1 0 0 1 1.135984 2.271922)" fill="#fff20a"><path transform="matrix(1 0 0 1 6.267391 0)" d="M0 0v.59h.27V.27h.28V0H0z"/><path transform="matrix(1 0 0 1 0 4.543891)" d="M0 .59h.27V.27h.32V0H0v.59z"/></g><path transform="matrix(1 0 0 1 8.226 3.133703)" d="M0 .27h.31V0H0v.27z" fill="#fef20b"/><g transform="matrix(1 0 0 1 1.136 3.995295)" fill="#ffc90d"><path transform="matrix(1 0 0 1 .587531 .000174)" d="M0 0v1.14h.55V0H0z"/><path transform="matrix(1 0 0 1 9.087561 0)" d="M0 1.14h.59V0H0v1.14z"/><path transform="matrix(1 0 0 1 0 3.956312)" d="M1.72 2.28l-.57-.02L1.14 0H.59v.59H0v.55h.59v1.13h.55v.59h.58v.55h.55V4h.59v-.59l-.57-.01-.02-.54c-.18 0-.36 0-.53-.01l-.02-.57z"/></g><g transform="matrix(1 0 0 1 4.543891 3.995078)" fill="#333"><path transform="matrix(1 0 0 1 0 0)" d="M0 .55h.59V0H0v.55z"/><path transform="matrix(1 0 0 1 2.859109 0)" d="M.55.55H0V0h.55v.55z"/></g><path transform="matrix(1 0 0 1 6.267422 3.995094)" d="M.27.82V.55h.55V.27H.55V0H0v.82h.27z" fill="#fff10b"/><path transform="matrix(1 0 0 1 5.679844 5.131438)" d="M0 1.14h1.14V0H0v1.14z" fill="#ff7f26"/><path transform="matrix(1 0 0 1 8.539313 7.951766)" d="M2.82.59h-.55V0h-.59v2.26l-.54.02-.01.57-.58.01-.01.54-.54.01V4h.55v-.59h.59v-.55h.54v-.59h.59V1.14h.55V.59z" fill="#fec90d"/><g transform="matrix(1 0 0 1 3.407953 11.358484)" fill="#323232"><path transform="matrix(1 0 0 1 0 .000391)" d="M.59 1.14H0v.55h1.72v-.55h-.58V0H.59v1.14z"/><path transform="matrix(1 0 0 1 3.995063 0)" d="M.55 1.14H0v.55h1.69l-.01-.55h-.54V.59 0H.55v.59.55z"/></g><path transform="matrix(1 0 0 1 4.543484 11.359551)" d="M0 .59h3.41V0H0v.59z" fill="#ffc80d"/></g></g></g></svg>
